**harmony	**harte	**kern	**silbe	**rhyme	**timestamp	**phrase	**leadinstrument
*M12/8	*M12/8	*ICvox	*	*	*	*	*
*	*	*VRlead	*	*	*	*	*
*	*	*Hstimme	*	*	*	*	*
*D-:	*D-:	*D-:	*	*	*	*	*
*	*	*M12/8	*	*	*	*	*
*	*	*clefF4	*	*	*	*	*
1r;	1r	r;	.	.	0	.	r
=1	=1	=1	=1	=1	=1	=1	=1
*>Letter>A	*>Letter>A	*>Letter>A	*>Letter>A	*>Letter>A	*>Letter>A	*>Letter>A	*>Letter>A
*>Label>Intro	*>Label>Intro	*>Label>Intro	*>Label>Intro	*>Label>Intro	*>Label>Intro	*>Label>Intro	*>Label>Intro
4.N	N	2.r	.	.	1.416	newline	piano
4.D-M	D-:maj/3	.	.	.	2.063	.	piano
4.D-d	D-:dim/b3	4.r	.	.	2.709	.	piano
4.E-mm	E-:min7	4AA-	I	.	3.355	.	piano
.	.	8BB-	was	.	.	.	.
=2	=2	=2	=2	=2	=2	=2	=2
*>Letter>B	*>Letter>B	*>Letter>B	*>Letter>B	*>Letter>B	*>Letter>B	*>Letter>B	*>Letter>B
*>Label>Verse	*>Label>Verse	*>Label>Verse	*>Label>Verse	*>Label>Verse	*>Label>Verse	*>Label>Verse	*>Label>Verse
1.D-M	D-:maj	4D-	to-	.	4.001	newline	voice
.	.	8D-	-tin'	.	.	.	.
.	.	4D-	my	.	.	.	.
.	.	[8D-	pack	.	.	.	.
.	.	8D-]	_	.	.	.	.
.	.	8r	.	.	.	.	.
.	.	8AA-	a-	.	.	.	.
.	.	4BB-	-long	.	.	.	.
.	.	8AA-	the	.	.	.	.
=3	=3	=3	=3	=3	=3	=3	=3
1.D-M	D-:maj	4D-	du-	.	7.187	.	voice
.	.	4.D-	-sty	.	.	.	.
.	.	16D-	Wi-	.	.	.	.
.	.	16D-	-nne-	.	.	.	.
.	.	16F	-mu-	.	.	.	.
.	.	16D-	-cca	.	.	.	.
.	.	4BB-	roa-	A	.	.	.
.	.	8AA-	-d	.	.	.	.
.	.	8r	.	.	.	.	.
.	.	16AA-	When	.	.	.	.
.	.	16AA-	a-	.	.	.	.
=4	=4	=4	=4	=4	=4	=4	=4
1.D-M	D-:maj	4.D-	-long	.	10.374	.	voice
.	.	4D-	came	.	.	.	.
.	.	8D-	a	.	.	.	.
.	.	8.D-	se-	.	.	.	.
.	.	[8.D-	-mi	.	.	.	.
.	.	8D-]	_	.	.	.	.
.	.	8r	.	.	.	.	.
.	.	16AA-	with	.	.	.	.
.	.	16AA-	a	.	.	.	.
=5	=5	=5	=5	=5	=5	=5	=5
1.D-M	D-:maj	4.D-	high	.	13.56	.	voice
.	.	4D-	can-	.	.	.	.
.	.	8D-	-vas	.	.	.	.
.	.	16F	co-	.	.	.	.
.	.	16D-	-vered	.	.	.	.
.	.	4BB-	load	A	.	.	.
.	.	8.r	.	.	.	.	.
.	.	16AA-	If	.	.	.	.
.	.	8AA-	you're	.	.	.	.
=6	=6	=6	=6	=6	=6	=6	=6
1.G-Mm	G-:7	4D-	going	.	16.746	newline	voice
.	.	4.D-	to	.	.	.	.
.	.	16D-	Wi-	.	.	.	.
.	.	16D-	-nee-	.	.	.	.
.	.	16D-	-mu-	.	.	.	.
.	.	8D-	-cca	.	.	.	.
.	.	8.D-	Mack	.	.	.	.
.	.	4r	.	.	.	.	.
.	.	8BB-	with	.	.	.	.
=7	=7	=7	=7	=7	=7	=7	=7
1.G-Mm	G-:7	4D-	me	.	19.931	.	voice
.	.	8D-	you	.	.	.	.
.	.	8BB-	can	.	.	.	.
.	.	[4D-	ride	B	.	.	.
.	.	4D-]	_	.	.	.	.
.	.	8r	.	.	.	.	.
.	.	8.r	.	.	.	.	.
.	.	16AA-	So	.	.	.	.
.	.	8AA-	I	.	.	.	.
=8	=8	=8	=8	=8	=8	=8	=8
1.D-M	D-:maj	4D-	climbed	.	23.116	.	voice
.	.	8D-	in-	.	.	.	.
.	.	4D-	-to	.	.	.	.
.	.	8D-	the	.	.	.	.
.	.	4D-	ca-	.	.	.	.
.	.	[8AA-	-bin	.	.	.	.
.	.	8.AA-]	_	.	.	.	.
.	.	16AA-	and	.	.	.	.
.	.	8AA-	I	.	.	.	.
=9	=9	=9	=9	=9	=9	=9	=9
1.D-M	D-:maj	16D-	sett-	.	26.302	.	voice
.	.	16D-	-led	.	.	.	.
.	.	[4D-	down	.	.	.	.
.	.	4D-]	_	.	.	.	.
.	.	8D-	in	.	.	.	.
.	.	4.D-	side	B	.	.	.
.	.	4r	.	.	.	.	.
.	.	8AA-	He	.	.	.	.
=10	=10	=10	=10	=10	=10	=10	=10
1.A-Mm	A-:7	4E-	asked	.	29.487	newline	voice
.	.	[8E-	me	.	.	.	.
.	.	8.E-]	_	.	.	.	.
.	.	16E-	if	.	.	.	.
.	.	8E-	I'd	.	.	.	.
.	.	16E-	seen	.	.	.	.
.	.	16AA-	a	.	.	.	.
.	.	4BB-	roa-	.	.	.	.
.	.	8AA-	-d	.	.	.	.
.	.	8r	.	.	.	.	.
.	.	8AA-	with	.	.	.	.
=11	=11	=11	=11	=11	=11	=11	=11
1.A-Mm	A-:7	4E-	so	.	33.125	.	voice
.	.	8E-	much	.	.	.	.
.	.	4E-	dust	.	.	.	.
.	.	8E-	and	.	.	.	.
.	.	4E-	sand	C	.	.	.
.	.	8AA-	And	.	.	.	.
.	.	4BB-	I	.	.	.	.
.	.	8AA-	said	.	.	.	.
=12	=12	=12	=12	=12	=12	=12	=12
1.D-M	D-:maj	16D-	list-	.	36.764	.	voice
.	.	8AA-	-en	.	.	.	.
.	.	16BB-	bud	.	.	.	.
.	.	16D-	_	.	.	.	.
.	.	16r	.	.	.	.	.
.	.	4r	.	.	.	.	.
.	.	8D-	I've	.	.	.	.
.	.	4D-	tra-	.	.	.	.
.	.	8D-	-velled	.	.	.	.
.	.	4BB-	ev-	.	.	.	.
.	.	8AA-	-ery	.	.	.	.
=13	=13	=13	=13	=13	=13	=13	=13
1.D-M	D-:maj	4D-	road	.	40.403	.	voice
.	.	8D-	in	.	.	.	.
.	.	4D-	this	.	.	.	.
.	.	8D-	here	.	.	.	.
.	.	4.D-	land	C	.	.	.
.	.	4.r	.	.	.	.	.
=14	=14	=14	=14	=14	=14	=14	=14
*>Letter>C	*>Letter>C	*>Letter>C	*>Letter>C	*>Letter>C	*>Letter>C	*>Letter>C	*>Letter>C
*>Label>Chorus	*>Label>Chorus	*>Label>Chorus	*>Label>Chorus	*>Label>Chorus	*>Label>Chorus	*>Label>Chorus	*>Label>Chorus
*M4/4	*M4/4	*	*	*	*	*	*
1D-M	D-:maj	4F	I've	.	41.231	newline	voice
.	.	8D-	been	.	.	.	.
.	.	4.D-	eve-	.	.	.	.
.	.	4BB-	-ry-	.	.	.	.
=15	=15	=15	=15	=15	=15	=15	=15
1D-M	D-:maj	2D-	-where	D	42.254	.	voice
.	.	4.F	man	.	.	.	.
.	.	[8F	I've	.	.	.	.
=16	=16	=16	=16	=16	=16	=16	=16
1D-M	D-:maj	4F]	_	.	43.278	.	voice
.	.	8D-	been	.	.	.	.
.	.	4.D-	eve-	.	.	.	.
.	.	4BB-	-ry-	.	.	.	.
=17	=17	=17	=17	=17	=17	=17	=17
1D-M	D-:maj	2D-	-where	D	44.301	.	voice
.	.	4F	man	.	.	.	.
.	.	4r	.	.	.	.	.
=18	=18	=18	=18	=18	=18	=18	=18
1G-Mm	G-:7	4F	Cross	.	45.325	newline	voice
.	.	8D-	the	.	.	.	.
.	.	4.D-	de-	.	.	.	.
.	.	4BB-	-serts	.	.	.	.
=19	=19	=19	=19	=19	=19	=19	=19
1G-Mm	G-:7	4.D-	bare	D	46.343	.	voice
.	.	4.F	man	.	.	.	.
.	.	4D-	I've	.	.	.	.
=20	=20	=20	=20	=20	=20	=20	=20
1D-M	D-:maj	4F	breathed	.	47.361	.	voice
.	.	8D-	the	.	.	.	.
.	.	4.D-	moun-	.	.	.	.
.	.	4BB-	-tain	.	.	.	.
=21	=21	=21	=21	=21	=21	=21	=21
1D-M	D-:maj	4.D-	air	D	48.378	.	voice
.	.	4.F	man	.	.	.	.
.	.	4D-	Of	.	.	.	.
=22	=22	=22	=22	=22	=22	=22	=22
1A-Mm	A-:7	8F	tra-	.	49.396	newline	voice
.	.	8E-	-vel	.	.	.	.
.	.	4E-	I've	.	.	.	.
.	.	4C	had	.	.	.	.
.	.	4AA-	my	.	.	.	.
=23	=23	=23	=23	=23	=23	=23	=23
1A-Mm	A-:7	2E-	share	D	50.403	.	voice
.	.	4.F	man	.	.	.	.
.	.	[8F	I've	.	.	.	.
=24	=24	=24	=24	=24	=24	=24	=24
1A-Mm	A-:7	4F]	_	.	51.41	.	voice
.	.	8D-	been	.	.	.	.
.	.	4.D-	eve-	.	.	.	.
.	.	4BB-	-ry-	.	.	.	.
=25	=25	=25	=25	=25	=25	=25	=25
1D-M	D-:maj	1D-	-where	D	52.416	.	voice
=26	=26	=26	=26	=26	=26	=26	=26
1D-M	D-:maj	2r	.	.	53.423	.	voice
.	.	4r	.	.	.	.	.
.	.	8AA-	Been	.	.	.	.
.	.	8AA-	to	.	.	.	.
=27	=27	=27	=27	=27	=27	=27	=27
*>Letter>B2	*>Letter>B2	*>Letter>B2	*>Letter>B2	*>Letter>B2	*>Letter>B2	*>Letter>B2	*>Letter>B2
*>Label>Verse	*>Label>Verse	*>Label>Verse	*>Label>Verse	*>Label>Verse	*>Label>Verse	*>Label>Verse	*>Label>Verse
1D-M	D-:maj	4D-	Re-	.	54.43	newline	voice
.	.	8D-	-no	E	.	.	.
.	.	8D-	Chi-	.	.	.	.
.	.	4D-	-ca-	.	.	.	.
.	.	4D-	-go	E	.	.	.
=28	=28	=28	=28	=28	=28	=28	=28
1D-M	D-:maj	4D-	Far-	.	55.446	.	voice
.	.	4D-	-go	E	.	.	.
.	.	8D-	Mi-	.	.	.	.
.	.	8D-	-nne-	.	.	.	.
.	.	8D-	-so-	E	.	.	.
.	.	8D-	-ta	.	.	.	.
=29	=29	=29	=29	=29	=29	=29	=29
1D-M	D-:maj	8D-	Bu-	.	56.462	.	voice
.	.	8D-	-ffa-	.	.	.	.
.	.	8D-	-lo	E	.	.	.
.	.	8D-	To-	.	.	.	.
.	.	4D-	-ron-	.	.	.	.
.	.	4D-	-to	E	.	.	.
=30	=30	=30	=30	=30	=30	=30	=30
1D-M	D-:maj	4D-	Win-	.	57.478	.	voice
.	.	4D-	-slow	E	.	.	.
.	.	8D-	Sa-	.	.	.	.
.	.	8D-	-ra-	.	.	.	.
.	.	8D-	-so-	E	.	.	.
.	.	8D-	-ta	F	.	.	.
=31	=31	=31	=31	=31	=31	=31	=31
1G-Mm	G-:7	8D-	Wi-	.	58.494	newline	voice
.	.	8D-	-chi-	.	.	.	.
.	.	4D-	-ta	F	.	.	.
.	.	4D-	Tul-	.	.	.	.
.	.	8D-	-sa	F	.	.	.
.	.	[8BB-	O-	.	.	.	.
=32	=32	=32	=32	=32	=32	=32	=32
1G-Mm	G-:7	8BB-]	_	.	59.496	.	voice
.	.	8D-	-tta-	.	.	.	.
.	.	8D-	-wa	F	.	.	.
.	.	4D-	Ok-	E	.	.	.
.	.	8D-	-la-	F	.	.	.
.	.	8D-	-ho-	.	.	.	.
.	.	8D-	-ma	F	.	.	.
=33	=33	=33	=33	=33	=33	=33	=33
1D-M	D-:maj	4D-	Tam-	G	60.498	.	voice
.	.	4D-	-pa	F	.	.	.
.	.	8D-	Pa-	G	.	.	.
.	.	8D-	-na-	.	.	.	.
.	.	4D-	-ma	F	.	.	.
=34	=34	=34	=34	=34	=34	=34	=34
1D-M	D-:maj	8D-	Ma-	G	61.5	.	voice
.	.	8D-	-tta-	.	.	.	.
.	.	4D-	-wa	F	.	.	.
.	.	8D-	La	G	.	.	.
.	.	8D-	Pa-	F	.	.	.
.	.	8D-	-lo-	E	.	.	.
.	.	8D-	-ma	F	.	.	.
=35	=35	=35	=35	=35	=35	=35	=35
1A-Mm	A-:7	4E-	Ban-	.	62.503	newline	voice
.	.	4E-	-gor	H	.	.	.
.	.	8E-	Bal-	.	.	.	.
.	.	8E-	-ti-	.	.	.	.
.	.	8E-	-more	H	.	.	.
.	.	[8E-	Sal-	.	.	.	.
=36	=36	=36	=36	=36	=36	=36	=36
1A-Mm	A-:7	8E-]	_	.	63.492	.	voice
.	.	8E-	-va-	.	.	.	.
.	.	8E-	-dor	H	.	.	.
.	.	[8E-	A-	.	.	.	.
.	.	8E-]	_	.	.	.	.
.	.	8E-	-ma-	.	.	.	.
.	.	8E-	-ri-	.	.	.	.
.	.	8E-	-llo	H	.	.	.
=37	=37	=37	=37	=37	=37	=37	=37
1D-M	D-:maj	8D-	To-	.	64.481	.	voice
.	.	8D-	-co-	.	.	.	.
.	.	8D-	-pill-	(I	.	.	.
.	.	8D-	-a	i)	.	.	.
.	.	8D-	Barr-	.	.	.	.
.	.	8D-	-an-	.	.	.	.
.	.	8D-	-qui-	(I	.	.	.
.	.	8D-	-lla	i)	.	.	.
=38	=38	=38	=38	=38	=38	=38	=38
1D-M	D-:maj	8D-	and	.	65.471	.	voice
.	.	8D-	Pa-	.	.	.	.
.	.	8D-	-di-	(I	.	.	.
.	.	8D-	-lla	i)	.	.	.
.	.	8D-	I'm	.	.	.	.
.	.	8D-	a	.	.	.	.
.	.	8D-	ki-	(I	.	.	.
.	.	8D-	-ller	i)	.	.	.
=39	=39	=39	=39	=39	=39	=39	=39
*>Letter>C	*>Letter>C	*>Letter>C	*>Letter>C	*>Letter>C	*>Letter>C	*>Letter>C	*>Letter>C
*>Label>Chorus	*>Label>Chorus	*>Label>Chorus	*>Label>Chorus	*>Label>Chorus	*>Label>Chorus	*>Label>Chorus	*>Label>Chorus
1D-M	D-:maj	4F	I've	.	66.46	newline	voice
.	.	8D-	been	.	.	.	.
.	.	4.D-	eve-	.	.	.	.
.	.	4BB-	-ry-	.	.	.	.
=40	=40	=40	=40	=40	=40	=40	=40
1D-M	D-:maj	2D-	-where	D	67.458	.	voice
.	.	8F	man	.	.	.	.
.	.	8r	.	.	.	.	.
.	.	8r	.	.	.	.	.
.	.	[8F	I've	.	.	.	.
=41	=41	=41	=41	=41	=41	=41	=41
1D-M	D-:maj	4F]	_	.	68.457	.	voice
.	.	8D-	been	.	.	.	.
.	.	4.D-	eve-	.	.	.	.
.	.	4BB-	-ry-	.	.	.	.
=42	=42	=42	=42	=42	=42	=42	=42
1D-M	D-:maj	2D-	-where	D	69.455	.	voice
.	.	4F	man	.	.	.	.
.	.	4r	.	.	.	.	.
=43	=43	=43	=43	=43	=43	=43	=43
1G-Mm	G-:7	4F	Cross	.	70.454	newline	voice
.	.	8D-	the	.	.	.	.
.	.	4.D-	de-	.	.	.	.
.	.	4BB-	-serts	.	.	.	.
=44	=44	=44	=44	=44	=44	=44	=44
1G-Mm	G-:7	4.D-	bare	D	71.457	.	voice
.	.	4.F	man	.	.	.	.
.	.	4D-	I've	.	.	.	.
=45	=45	=45	=45	=45	=45	=45	=45
1D-M	D-:maj	4F	breathed	.	72.46	.	voice
.	.	8D-	the	.	.	.	.
.	.	4.D-	moun-	.	.	.	.
.	.	4BB-	-tain	.	.	.	.
=46	=46	=46	=46	=46	=46	=46	=46
1D-M	D-:maj	4.D-	air	D	73.463	.	voice
.	.	4.F	man	.	.	.	.
.	.	4D-	Of	.	.	.	.
=47	=47	=47	=47	=47	=47	=47	=47
1A-Mm	A-:7	8F	tra-	.	74.466	newline	voice
.	.	8E-	-vel	.	.	.	.
.	.	4E-	I've	.	.	.	.
.	.	4C	had	.	.	.	.
.	.	4AA-	my	.	.	.	.
=48	=48	=48	=48	=48	=48	=48	=48
1A-Mm	A-:7	2E-	share	D	75.468	.	voice
.	.	8F	man	.	.	.	.
.	.	8r	.	.	.	.	.
.	.	8r	.	.	.	.	.
.	.	[8F	I've	.	.	.	.
=49	=49	=49	=49	=49	=49	=49	=49
1A-Mm	A-:7	4F]	_	.	76.47	.	voice
.	.	8D-	been	.	.	.	.
.	.	4.D-	eve-	.	.	.	.
.	.	4BB-	-ry-	.	.	.	.
=50	=50	=50	=50	=50	=50	=50	=50
1D-M	D-:maj	1D-	-where	D	77.472	.	voice
=51	=51	=51	=51	=51	=51	=51	=51
1D-M	D-:maj	1r	.	.	78.475	.	voice
=52	=52	=52	=52	=52	=52	=52	=52
*>Letter>E	*>Letter>E	*>Letter>E	*>Letter>E	*>Letter>E	*>Letter>E	*>Letter>E	*>Letter>E
*>Label>Trans	*>Label>Trans	*>Label>Trans	*>Label>Trans	*>Label>Trans	*>Label>Trans	*>Label>Trans	*>Label>Trans
*D:	*D:	*D:	*	*	*D:	*D:	*D:
1DM	D:maj	1r	.	.	79.477	newline	voice
=53	=53	=53	=53	=53	=53	=53	=53
1DM	D:maj	2r	.	.	80.497	.	voice
.	.	4r	.	.	.	.	.
.	.	4AA	Bo-	.	.	.	.
=54	=54	=54	=54	=54	=54	=54	=54
*>Letter>B3	*>Letter>B3	*>Letter>B3	*>Letter>B3	*>Letter>B3	*>Letter>B3	*>Letter>B3	*>Letter>B3
*>Label>Verse	*>Label>Verse	*>Label>Verse	*>Label>Verse	*>Label>Verse	*>Label>Verse	*>Label>Verse	*>Label>Verse
1DM	D:maj	4D	_	.	81.516	newline	voice
.	.	4D	-ston	J	.	.	.
.	.	8D	Char-	.	.	.	.
.	.	8D	-les-	.	.	.	.
.	.	4D	-ton	J	.	.	.
=55	=55	=55	=55	=55	=55	=55	=55
1DM	D:maj	4D	Day-	.	82.502	.	voice
.	.	8D	-ton	J	.	.	.
.	.	8D	Lou-	.	.	.	.
.	.	8D	-is-	.	.	.	.
.	.	8D	-i-	.	.	.	.
.	.	8D	-a-	G	.	.	.
.	.	8D	-na	F	.	.	.
=56	=56	=56	=56	=56	=56	=56	=56
1DM	D:maj	8D	Wa-	.	83.487	.	voice
.	.	8D	-shing-	.	.	.	.
.	.	4D	-ton	J	.	.	.
.	.	4D	Hous-	.	.	.	.
.	.	4D	-ton	J	.	.	.
=57	=57	=57	=57	=57	=57	=57	=57
1DM	D:maj	4D	Kings-	.	84.472	.	voice
.	.	8D	-ton	J	.	.	.
.	.	4D	Tex-	.	.	.	.
.	.	8D	-ar-	.	.	.	.
.	.	8D	-ka-	G	.	.	.
.	.	8D	-na	F	.	.	.
=58	=58	=58	=58	=58	=58	=58	=58
1GMm	G:7	8D	Mon-	.	85.458	newline	voice
.	.	8D	-ter-	.	.	.	.
.	.	4D	-ey	K	.	.	.
.	.	8D	Fe-	.	.	.	.
.	.	8D	-rri-	.	.	.	.
.	.	4D	-day	K	.	.	.
=59	=59	=59	=59	=59	=59	=59	=59
1GMm	G:7	8D	San-	G	86.462	.	voice
.	.	8D	-ta	E	.	.	.
.	.	8D	Fe	K	.	.	.
.	.	4D	Tall-	.	.	.	.
.	.	8D	-a-	(l	.	.	.
.	.	8D	-poo-	L	.	.	.
.	.	8D	-sa	l)	.	.	.
=60	=60	=60	=60	=60	=60	=60	=60
1DM	D:maj	4D	Glen	.	87.466	.	voice
.	.	4D	Rock	.	.	.	.
.	.	4D	Black	.	.	.	.
.	.	4D	Rock	.	.	.	.
=61	=61	=61	=61	=61	=61	=61	=61
1DM	D:maj	8D	Li-	.	88.47	.	voice
.	.	8D	-ttle	.	.	.	.
.	.	8D	Rock	.	.	.	.
.	.	4D	Os-	.	.	.	.
.	.	8D	-ka-	(l	.	.	.
.	.	8D	-loo-	L	.	.	.
.	.	8D	-sa	l)	.	.	.
=62	=62	=62	=62	=62	=62	=62	=62
1AMm	A:7	8E	Te-	(M	89.474	newline	voice
.	.	8E	-nne-	m	.	.	.
.	.	4E	-ssee	M)	.	.	.
.	.	8E	He-	(M	.	.	.
.	.	8E	-nne-	m	.	.	.
.	.	8E	-ssey	M)	.	.	.
.	.	[8E	Chi-	(M	.	.	.
=63	=63	=63	=63	=63	=63	=63	=63
1AMm	A:7	8E]	_	.	90.465	.	voice
.	.	8E	-co-	m	.	.	.
.	.	4E	-pee	M)	.	.	.
.	.	8E	Spi-	.	.	.	.
.	.	8E	-rit	.	.	.	.
.	.	8E	Lake	.	.	.	.
.	.	[8D	Grand	.	.	.	.
=64	=64	=64	=64	=64	=64	=64	=64
1DM	D:maj	4D]	_	.	91.457	.	voice
.	.	4D	Lake	.	.	.	.
.	.	8D	De-	.	.	.	.
.	.	8D	-vil's	.	.	.	.
.	.	4D	Lake	.	.	.	.
=65	=65	=65	=65	=65	=65	=65	=65
1DM	D:maj	8D	Cra-	.	92.448	.	voice
.	.	8D	-ter	.	.	.	.
.	.	8D	Lake	N	.	.	.
.	.	8D	for	.	.	.	.
.	.	4D	Pete's	.	.	.	.
.	.	8D	sake	N	.	.	.
.	.	[8F#	I've	.	.	.	.
=66	=66	=66	=66	=66	=66	=66	=66
*>Letter>C2	*>Letter>C2	*>Letter>C2	*>Letter>C2	*>Letter>C2	*>Letter>C2	*>Letter>C2	*>Letter>C2
*>Label>Chorus	*>Label>Chorus	*>Label>Chorus	*>Label>Chorus	*>Label>Chorus	*>Label>Chorus	*>Label>Chorus	*>Label>Chorus
1DM	D:maj	4F#]	_	.	93.44	newline	voice
.	.	8D	been	.	.	.	.
.	.	4.D	eve-	.	.	.	.
.	.	4BB	-ry-	.	.	.	.
=67	=67	=67	=67	=67	=67	=67	=67
1DM	D:maj	2D	-where	D	94.439	.	voice
.	.	4F#	man	.	.	.	.
.	.	4r	.	.	.	.	.
=68	=68	=68	=68	=68	=68	=68	=68
1DM	D:maj	4F#	I've	.	95.437	.	voice
.	.	8D	been	.	.	.	.
.	.	4.D	eve-	.	.	.	.
.	.	4BB	-ry-	.	.	.	.
=69	=69	=69	=69	=69	=69	=69	=69
1DM	D:maj	2D	-where	D	96.436	.	voice
.	.	8F#	man	.	.	.	.
.	.	8r	.	.	.	.	.
.	.	4r	.	.	.	.	.
=70	=70	=70	=70	=70	=70	=70	=70
1GMm	G:7	4F#	Cross	.	97.435	newline	voice
.	.	8D	the	.	.	.	.
.	.	4.D	de-	.	.	.	.
.	.	4BB	-serts	.	.	.	.
=71	=71	=71	=71	=71	=71	=71	=71
1GMm	G:7	4.D	bare	D	98.445	.	voice
.	.	4.F#	man	.	.	.	.
.	.	4D	I've	.	.	.	.
=72	=72	=72	=72	=72	=72	=72	=72
1DM	D:maj	4F#	breathed	.	99.455	.	voice
.	.	8D	the	.	.	.	.
.	.	4.D	moun-	.	.	.	.
.	.	4BB	-tain	.	.	.	.
=73	=73	=73	=73	=73	=73	=73	=73
1DM	D:maj	4.D	air	D	100.465	.	voice
.	.	4F#	man	.	.	.	.
.	.	8r	.	.	.	.	.
.	.	4D	Of	.	.	.	.
=74	=74	=74	=74	=74	=74	=74	=74
1AMm	A:7	8F#	tra-	.	101.475	newline	voice
.	.	8E	-vel	.	.	.	.
.	.	4E	I've	.	.	.	.
.	.	4C#	had	.	.	.	.
.	.	4AA	my	.	.	.	.
=75	=75	=75	=75	=75	=75	=75	=75
1AMm	A:7	2E	share	D	102.475	.	voice
.	.	4F#	man	.	.	.	.
.	.	8r	.	.	.	.	.
.	.	[8F#	I've	.	.	.	.
=76	=76	=76	=76	=76	=76	=76	=76
1AMm	A:7	4F#]	_	.	103.474	.	voice
.	.	8D	been	.	.	.	.
.	.	4.D	eve-	.	.	.	.
.	.	4BB	-ry-	.	.	.	.
=77	=77	=77	=77	=77	=77	=77	=77
1DM	D:maj	1D	-where	D	104.473	.	voice
=78	=78	=78	=78	=78	=78	=78	=78
1DM	D:maj	1r	.	.	105.472	.	voice
=79	=79	=79	=79	=79	=79	=79	=79
*>Letter>E2	*>Letter>E2	*>Letter>E2	*>Letter>E2	*>Letter>E2	*>Letter>E2	*>Letter>E2	*>Letter>E2
*>Label>Trans	*>Label>Trans	*>Label>Trans	*>Label>Trans	*>Label>Trans	*>Label>Trans	*>Label>Trans	*>Label>Trans
*E-:	*E-:	*E-:	*	*	*E-:	*E-:	*E-:
1E-M	E-:maj	1r	.	.	106.471	newline	voice
=80	=80	=80	=80	=80	=80	=80	=80
1E-M	E-:maj	2r	.	.	107.479	.	voice
.	.	4.r	.	.	.	.	.
.	.	[8E-	Lou-	.	.	.	.
=81	=81	=81	=81	=81	=81	=81	=81
*>Letter>B4	*>Letter>B4	*>Letter>B4	*>Letter>B4	*>Letter>B4	*>Letter>B4	*>Letter>B4	*>Letter>B4
*>Label>Verse	*>Label>Verse	*>Label>Verse	*>Label>Verse	*>Label>Verse	*>Label>Verse	*>Label>Verse	*>Label>Verse
1E-M	E-:maj	8E-]	_	.	108.486	newline	voice
.	.	8E-	-is-	.	.	.	.
.	.	4E-	-ville	I	.	.	.
.	.	4E-	Nash-	.	.	.	.
.	.	8E-	-ville	K	.	.	.
.	.	[8E-	Knox-	.	.	.	.
=82	=82	=82	=82	=82	=82	=82	=82
1E-M	E-:maj	4E-]	_	.	109.477	.	voice
.	.	8E-	-ville	K	.	.	.
.	.	4E-	Om-	.	.	.	.
.	.	8E-	-ba-	.	.	.	.
.	.	8E-	-bi-	(O	.	.	.
.	.	8E-	-ka	o)	.	.	.
=83	=83	=83	=83	=83	=83	=83	=83
1E-M	E-:maj	8E-	She-	.	110.469	.	voice
.	.	8E-	-ffer-	.	.	.	.
.	.	4E-	-ville	K	.	.	.
.	.	8E-	Jack-	.	.	.	.
.	.	8E-	-son-	.	.	.	.
.	.	8E-	-ville	K	.	.	.
.	.	[8E-	Wa-	.	.	.	.
=84	=84	=84	=84	=84	=84	=84	=84
1E-M	E-:maj	8E-]	_	.	111.46	.	voice
.	.	8E-	-ter-	.	.	.	.
.	.	8E-	-ville	K	.	.	.
.	.	4E-	Co-	.	.	.	.
.	.	8E-	-sta	.	.	.	.
.	.	8E-	Ri-	(O	.	.	.
.	.	8E-	-ca	o)	.	.	.
=85	=85	=85	=85	=85	=85	=85	=85
1A-Mm	A-:7	4E-	Pitts-	.	112.451	newline	voice
.	.	4E-	-field	p	.	.	.
.	.	4E-	Spring-	.	.	.	.
.	.	8E-	-field	p	.	.	.
.	.	[8E-	Ba-	.	.	.	.
=86	=86	=86	=86	=86	=86	=86	=86
1A-Mm	A-:7	8E-]	_	.	113.459	.	voice
.	.	8E-	-kers-	.	.	.	.
.	.	4E-	-field	p	.	.	.
.	.	4E-	Shreve-	.	.	.	.
.	.	8E-	-port	q	.	.	.
.	.	[8E-	Hack-	G	.	.	.
=87	=87	=87	=87	=87	=87	=87	=87
1E-M	E-:maj	8E-]	_	.	114.468	.	voice
.	.	8E-	-en-	.	.	.	.
.	.	4E-	-sack	G	.	.	.
.	.	8E-	Ca-	G	.	.	.
.	.	8E-	-di-	.	.	.	.
.	.	8E-	-llac	G	.	.	.
.	.	[8E-	Fond	.	.	.	.
=88	=88	=88	=88	=88	=88	=88	=88
1E-M	E-:maj	8E-]	_	.	115.476	.	voice
.	.	8E-	do	.	.	.	.
.	.	4E-	Lac	G	.	.	.
.	.	8E-	Da-	G	.	.	.
.	.	8E-	-ven-	.	.	.	.
.	.	4E-	-port	A	.	.	.
=89	=89	=89	=89	=89	=89	=89	=89
1B-Mm	B-:7	8F	I-	.	116.484	newline	voice
.	.	8F	-da-	.	.	.	.
.	.	4F	-ho	A	.	.	.
.	.	8F	Je-	.	.	.	.
.	.	8F	-lli-	.	.	.	.
.	.	8F	-coe	A	.	.	.
.	.	[8F	Ar-	.	.	.	.
=90	=90	=90	=90	=90	=90	=90	=90
1B-Mm	B-:7	8F]	_	.	117.473	.	voice
.	.	8F	-gen-	.	.	.	.
.	.	8F	-ti-	(Q	.	.	.
.	.	8F	-na	q)	.	.	.
.	.	8F	Dia-	.	.	.	.
.	.	8F	-mon-	.	.	.	.
.	.	8F	-ti-	(Q	.	.	.
.	.	8F	-na	q)	.	.	.
=91	=91	=91	=91	=91	=91	=91	=91
1E-M	E-:maj	8E-	Pa-	.	118.462	.	voice
.	.	8E-	-sa-	.	.	.	.
.	.	8E-	-de-	(Q	.	.	.
.	.	8E-	-na	q)	.	.	.
.	.	8E-	Ca-	.	.	.	.
.	.	8E-	-ta-	.	.	.	.
.	.	8E-	-li-	(Q	.	.	.
.	.	8E-	-na	q)	.	.	.
=92	=92	=92	=92	=92	=92	=92	=92
1E-M	E-:maj	4E-	See	.	119.451	.	voice
.	.	8E-	what	.	.	.	.
.	.	8E-	I	.	.	.	.
.	.	4E-	mean	(Q	.	.	.
.	.	8E-	sir?	q)	.	.	.
.	.	[8G	I've	.	.	.	.
=93	=93	=93	=93	=93	=93	=93	=93
*>Letter>C3	*>Letter>C3	*>Letter>C3	*>Letter>C3	*>Letter>C3	*>Letter>C3	*>Letter>C3	*>Letter>C3
*>Label>Chorus	*>Label>Chorus	*>Label>Chorus	*>Label>Chorus	*>Label>Chorus	*>Label>Chorus	*>Label>Chorus	*>Label>Chorus
1E-M	E-:maj	4G]	_	.	120.44	newline	voice
.	.	8E-	been	.	.	.	.
.	.	4.E-	eve-	.	.	.	.
.	.	4C	-ry-	.	.	.	.
=94	=94	=94	=94	=94	=94	=94	=94
1E-M	E-:maj	2E-	-where	D	121.442	.	voice
.	.	4G	man	.	.	.	.
.	.	4r	.	.	.	.	.
=95	=95	=95	=95	=95	=95	=95	=95
1E-M	E-:maj	4G	I've	.	122.444	.	voice
.	.	8E-	been	.	.	.	.
.	.	4.E-	eve-	.	.	.	.
.	.	4C	-ry-	.	.	.	.
=96	=96	=96	=96	=96	=96	=96	=96
1E-M	E-:maj	2E-	-where	D	123.447	.	voice
.	.	4G	man	.	.	.	.
.	.	4r	.	.	.	.	.
=97	=97	=97	=97	=97	=97	=97	=97
1A-Mm	A-:7	4G	Cross	.	124.449	newline	voice
.	.	8E-	the	.	.	.	.
.	.	4.E-	de-	.	.	.	.
.	.	4C	-serts	.	.	.	.
=98	=98	=98	=98	=98	=98	=98	=98
1A-Mm	A-:7	4.E-	bare	D	125.469	.	voice
.	.	4.G	man	.	.	.	.
.	.	4E-	I've	.	.	.	.
=99	=99	=99	=99	=99	=99	=99	=99
1E-M	E-:maj	4G	breathed	.	126.489	.	voice
.	.	8E-	the	.	.	.	.
.	.	4.E-	moun-	.	.	.	.
.	.	4C	-tain	.	.	.	.
=100	=100	=100	=100	=100	=100	=100	=100
1E-M	E-:maj	4.E-	air	D	127.508	.	voice
.	.	4.G	man	.	.	.	.
.	.	4E-	Of	.	.	.	.
=101	=101	=101	=101	=101	=101	=101	=101
1B-Mm	B-:7	8G	tra-	.	128.528	newline	voice
.	.	8F	-vel	.	.	.	.
.	.	4F	I've	.	.	.	.
.	.	4D	had	.	.	.	.
.	.	4BB-	my	.	.	.	.
=102	=102	=102	=102	=102	=102	=102	=102
1B-Mm	B-:7	2F	share	D	129.521	.	voice
.	.	4.G	man	.	.	.	.
.	.	[8G	I've	.	.	.	.
=103	=103	=103	=103	=103	=103	=103	=103
1B-Mm	B-:7	4G]	_	.	130.515	.	voice
.	.	8E-	been	.	.	.	.
.	.	4.E-	eve-	.	.	.	.
.	.	4C	-ry-	.	.	.	.
=104	=104	=104	=104	=104	=104	=104	=104
1E-M	E-:maj	1E-	-where	D	131.508	.	voice
=105	=105	=105	=105	=105	=105	=105	=105
1E-M	E-:maj	1r	.	.	132.502	.	voice
=106	=106	=106	=106	=106	=106	=106	=106
*>Letter>E3	*>Letter>E3	*>Letter>E3	*>Letter>E3	*>Letter>E3	*>Letter>E3	*>Letter>E3	*>Letter>E3
*>Label>Trans	*>Label>Trans	*>Label>Trans	*>Label>Trans	*>Label>Trans	*>Label>Trans	*>Label>Trans	*>Label>Trans
*E:	*E:	*E:	*	*	*E:	*E:	*E:
1EM	E:maj	1r	.	.	133.495	newline	voice
=107	=107	=107	=107	=107	=107	=107	=107
1EM	E:maj	2r	.	.	134.513	.	voice
.	.	4.r	.	.	.	.	.
.	.	[8E	Pitts-	.	.	.	.
=108	=108	=108	=108	=108	=108	=108	=108
*>Letter>B5	*>Letter>B5	*>Letter>B5	*>Letter>B5	*>Letter>B5	*>Letter>B5	*>Letter>B5	*>Letter>B5
*>Label>Verse	*>Label>Verse	*>Label>Verse	*>Label>Verse	*>Label>Verse	*>Label>Verse	*>Label>Verse	*>Label>Verse
1EM	E:maj	4E]	_	.	135.53	newline	voice
.	.	4E	-burgh	S	.	.	.
.	.	8E	Park-	.	.	.	.
.	.	8E	-ers-	.	.	.	.
.	.	8E	-burg	S	.	.	.
.	.	[8E	Gra-	.	.	.	.
=109	=109	=109	=109	=109	=109	=109	=109
1EM	E:maj	8E]	_	.	136.51	.	voice
.	.	8E	-vell-	.	.	.	.
.	.	4E	-burg	S	.	.	.
.	.	8E	Co-	.	.	.	.
.	.	8E	-lo-	(t	.	.	.
.	.	8E	-ra-	T	.	.	.
.	.	8E	-do	t)	.	.	.
=110	=110	=110	=110	=110	=110	=110	=110
1EM	E:maj	8E	Ell-	.	137.489	.	voice
.	.	8E	-ens-	.	.	.	.
.	.	4E	-burg	S	.	.	.
.	.	4E	Rex-	.	.	.	.
.	.	4E	-burg	S	.	.	.
=111	=111	=111	=111	=111	=111	=111	=111
1EM	E:maj	4E	Vicks-	.	138.468	.	voice
.	.	8E	-burg	S	.	.	.
.	.	4E	El-	.	.	.	.
.	.	8E	-do-	(t	.	.	.
.	.	8E	-ra-	T	.	.	.
.	.	8E	-do	t)	.	.	.
=112	=112	=112	=112	=112	=112	=112	=112
1AMm	A:7	8E	Larr-	.	139.448	newline	voice
.	.	8E	-i-	.	.	.	.
.	.	8E	-more	H	.	.	.
.	.	4.E	At-	.	.	.	.
.	.	4E	-more	H	.	.	.
=113	=113	=113	=113	=113	=113	=113	=113
1AMm	A:7	8E	Ha-	.	140.451	.	voice
.	.	8E	-ver-	.	.	.	.
.	.	8E	-straw	U	.	.	.
.	.	4E	Cha-	.	.	.	.
.	.	8E	-tta-	.	.	.	.
.	.	8E	-ni-	.	.	.	.
.	.	8E	-ka	U	.	.	.
=114	=114	=114	=114	=114	=114	=114	=114
1EM	E:maj	4E	Chas-	(V	141.455	.	voice
.	.	8E	-ka	v)	.	.	.
.	.	8E	Ne-	.	.	.	.
.	.	4E	-bras-	(V	.	.	.
.	.	8E	-ka	v)	.	.	.
.	.	8E	A-	.	.	.	.
=115	=115	=115	=115	=115	=115	=115	=115
1EM	E:maj	4E	-las-	(V	142.458	.	voice
.	.	8E	-ka	v)	.	.	.
.	.	4E	O-	.	.	.	.
.	.	8E	-pe-	.	.	.	.
.	.	8E	-li-	(V	.	.	.
.	.	8E	-ka	v)	.	.	.
=116	=116	=116	=116	=116	=116	=116	=116
1BMm	B:7	8F#	Ba-	.	143.461	newline	voice
.	.	8F#	-ra-	.	.	.	.
.	.	4F#	-boo	W	.	.	.
.	.	8F#	Wa-	.	.	.	.
.	.	8F#	-ter-	.	.	.	.
.	.	8F#	-loo	W	.	.	.
.	.	[8F#	Kala-	.	.	.	.
=117	=117	=117	=117	=117	=117	=117	=117
1BMm	B:7	8F#]	_	.	144.442	.	voice
.	.	8F#	-ma-	.	.	.	.
.	.	4F#	-zoo	W	.	.	.
.	.	8F#	Kan-	.	.	.	.
.	.	8F#	-sas	.	.	.	.
.	.	8F#	Ci-	.	.	.	.
.	.	8F#	-ty	.	.	.	.
=118	=118	=118	=118	=118	=118	=118	=118
1EM	E:maj	4E	Sioux	.	145.423	.	voice
.	.	8E	Ci-	.	.	.	.
.	.	8E	-ty	.	.	.	.
.	.	8E	Ce-	.	.	.	.
.	.	8E	-dar	.	.	.	.
.	.	8E	Ci-	.	.	.	.
.	.	8E	-ty	.	.	.	.
=119	=119	=119	=119	=119	=119	=119	=119
1EM	E:maj	4E	Dodge	.	146.404	.	voice
.	.	8E	Ci-	(X	.	.	.
.	.	8E	-ty	x)	.	.	.
.	.	8E	What	.	.	.	.
.	.	8E	a	.	.	.	.
.	.	8E	pi-	(X	.	.	.
.	.	8E	-ty	x)	.	.	.
=120	=120	=120	=120	=120	=120	=120	=120
*>Letter>C4	*>Letter>C4	*>Letter>C4	*>Letter>C4	*>Letter>C4	*>Letter>C4	*>Letter>C4	*>Letter>C4
*>Label>Chorus	*>Label>Chorus	*>Label>Chorus	*>Label>Chorus	*>Label>Chorus	*>Label>Chorus	*>Label>Chorus	*>Label>Chorus
1EM	E:maj	4G#	I've	.	147.385	newline	voice
.	.	8E	been	.	.	.	.
.	.	4.E	eve-	.	.	.	.
.	.	4C#	-ry-	.	.	.	.
=121	=121	=121	=121	=121	=121	=121	=121
1EM	E:maj	2E	-where	D	148.386	.	voice
.	.	4G#	man	.	.	.	.
.	.	8r	.	.	.	.	.
.	.	[8G#	I've	.	.	.	.
=122	=122	=122	=122	=122	=122	=122	=122
1EM	E:maj	4G#]	_	.	149.387	.	voice
.	.	8E	been	.	.	.	.
.	.	4.E	eve-	.	.	.	.
.	.	4C#	-ry-	.	.	.	.
=123	=123	=123	=123	=123	=123	=123	=123
1EM	E:maj	2E	-where	D	150.388	.	voice
.	.	4G#	man	.	.	.	.
.	.	4r	.	.	.	.	.
=124	=124	=124	=124	=124	=124	=124	=124
1AMm	A:7	4G#	Cross	.	151.389	newline	voice
.	.	8E	the	.	.	.	.
.	.	4.E	de-	.	.	.	.
.	.	4C#	-serts	.	.	.	.
=125	=125	=125	=125	=125	=125	=125	=125
1AMm	A:7	4.E	bare	D	152.38	.	voice
.	.	4.G#	man	.	.	.	.
.	.	4E	I've	.	.	.	.
=126	=126	=126	=126	=126	=126	=126	=126
1EM	E:maj	4G#	breathed	.	153.372	.	voice
.	.	8E	the	.	.	.	.
.	.	4.E	moun-	.	.	.	.
.	.	4C#	-tain	.	.	.	.
=127	=127	=127	=127	=127	=127	=127	=127
1EM	E:maj	4.E	air	D	154.363	.	voice
.	.	4.G#	man	.	.	.	.
.	.	4E	Of	.	.	.	.
=128	=128	=128	=128	=128	=128	=128	=128
1BMm	B:7	8G#	tra-	.	155.354	newline	voice
.	.	8F#	-vel	.	.	.	.
.	.	4F#	I've	.	.	.	.
.	.	4D#	had	.	.	.	.
.	.	4BB	my	.	.	.	.
=129	=129	=129	=129	=129	=129	=129	=129
1BMm	B:7	2F#	share	D	156.354	.	voice
.	.	4G#	man	.	.	.	.
.	.	8r	.	.	.	.	.
.	.	8r	.	.	.	.	.
=130	=130	=130	=130	=130	=130	=130	=130
1N	N	1r	.	.	157.354	.	voice
=131	=131	=131	=131	=131	=131	=131	=131
1N	N	2.r	.	.	158.354	.	voice
.	.	4EE	I've	.	.	.	.
=132	=132	=132	=132	=132	=132	=132	=132
1N	N	4BB	_	.	159.354	.	voice
.	.	4AA	been	.	.	.	.
.	.	4GG#	eve-	.	.	.	.
.	.	4FF#	-ry-	.	.	.	.
=133	=133	=133	=133	=133	=133	=133	=133
*>Letter>F	*>Letter>F	*>Letter>F	*>Letter>F	*>Letter>F	*>Letter>F	*>Letter>F	*>Letter>F
*>Label>Outro	*>Label>Outro	*>Label>Outro	*>Label>Outro	*>Label>Outro	*>Label>Outro	*>Label>Outro	*>Label>Outro
1EM	E:maj	[1EE	-where	D	160.354	newline	voice
=134	=134	=134	=134	=134	=134	=134	=134
1EM	E:maj	1EE]	_	.	161.353	.	voice
=135	=135	=135	=135	=135	=135	=135	=135
1EM	E:maj	1r	.	.	162.353	.	voice
=136	=136	=136	=136	=136	=136	=136	=136
1EM	E:maj	1r	.	.	163.352	.	voice
1r;	1r	r;	.	.	166.1	.	r
1r;	1r	r;	.	.	166.767	.	r
*-	*-	*-	*-	*-	*-	*-	*-
!!!BillboardChartDate: 1962/10/20
!!!BillboardPeak: 68
!!!BillboardWeeksOnChart: 8
!!!COC: Hank Snow
!!!EMD: Changed 6/8 in McGill intro to 12/8
!!!ENC: Nathaniel Condit-Schultz
!!!EST: Awating manual error checking and editing.
!!!OTL: I've Been Everywhere
!!!RDF**chordsym: original McGill chord annotation + (implied pitch class set, with bass pitch in first position)
!!!RDF**harmony: **recip + pitch class of root + harmonic quality
!!!RDF**leadinstrument: original McGill primary instrumentation annotation
!!!RDF**phrase: newline = linebreak in original McGill transcription
!!!RDF**timestamp: McGill audio timestamp in seconds
!!!RDT: 2017/01/12/
!!!SampleActualRank: 86
!!!SampleID#: 1059
!!!SampleTargetRank: 86
!!!MBID: a880eaa9-7198-4608-b7c9-af711af8ecd1
